!!!COM: Charles Gounod
!!!CNT: Francais
!!!TXO: Francais
!!!OTL: "Aimons-nous!"
!!!LYR: Barbier
!!!OPR: 
!!!OPS: Op. 
!!!ONM: No.
!!!ENC: Emily Thomas
!!!YOR: CD Sheet Music French Art Songs, The Ultimate Collection
!!!YOR: CD Sheet Music, LLC 2003
!!!ODT: 1872/
!!NB: Vocal melody and text encoded.
**kern	**silbe
=1	=1
*clefG2	*
*k[b-]	*
*M4/4	*
*MM[Allegro animato]	*
1r	.
=2	=2
1r	.
=3	=3
1r	.
=4	=4
1r	.
=5	=5
2r	.
4r	.
{4a	{Au
=6	=6
4a	fleu-
4a	-ve
8a	le
8a	ruis-
8a	-seau
8a	se
=7	=7
8cc	me\-
8b-}	-le,}
4r	.
4r	.
{8b-	{Et
8b-	le
=8	=8
8b-	fleu-
8b-	-ve
4r	.
4.b-	a\
8b-	la
=9	=9
4dd	mer
4cc}	|}
4r	.
{4cc	{Au
=10	=10
4.cc	vent
8cc	la
4dd	brise
4dd	u-
=11	=11
4.dd	-nit
8dd	son
4ee-	ai^-
4cc	-le,
=12	=12
4.b-	Se
8b-	con-
4.b-	-fond
8a	dans
=13	=13
4a	l'air!
4g}	|}
2r	.
=14	=14
{4g	{Fem-
4g	-me,
4r	.
8g	c'est
8g	la
=15	=15
4.a	loi
8d	su=
4f	-pre\-
8f}	-me!..}
8r	.
=16	=16
{4b-	{An-
4b-	-ge,
4r	.
8b-	c'est
8b-	la
=17	=17
4.cc	dou-
8g	-ce
[4a	loi!..
8a]}	|}
8r	.
=18	=18
{4dd	{Tout
8dd	veut
8dd	s'un-
4dd	-ir
4dd	a\
=19	=19
4.ee	ce
8bn	qu'il
8cc	ai-
8cc}	me!..}
4r	.
=20	=20
{4.ff	{M'ai/-
8ff	-mes-
4.ff	-tu,
8ee	dis-
=21	=21
[2dd	-moi?
4dd]}	|}
4r	.
=22	=22
{4.a	{M'ai-
8cc	-mes-
4.cc	-tu,
8e	dis-
=23	=23
[2f	-moi?
4f]}	|}
4r	.
=24	=24
1r	.
=25	=25
1r	.
=26	=26
1r	.
=27	=27
2r	.
{4.a	{Vois
8a	les
=28	=28
4a	cieux
4a	do-
4.a	-rer
8a	les
=28	=28
4cc	ci^-
4b-}	-mes!}
4r	.
{8b-	{Vois
8b-	s'u-
=29	=29
2b-	-nir
4b-	les
8b-	flots
8b-	heu-
=30	=30
4dd	-reux!..
4cc}	|}
4r	.
{[4cc	{Vois
=31	=31
4cc]	|
8cc	se
8cc	pen-
[4dd	[cher
8dd]	|
8dd	sur
=32	=32
4.dd	les
8dd	a-
8ee-	-bim-
8ee-	-es
8r	.
8cc	ces
=33	=33
4.b-	lier-
8b-	-res
4.b-	a-
8a	-mou-
=34	=34
4a	-reux!..
4g}	|}
2r	.
=35	=35
4r	.
{8g	{Le
8g	so-
4g	-leil
4g	e/-
=36	=36
4.a	-treint
8e	la
4f	ter-
8f}	-re!..}
8r	.
=37	=37
4r	.
{8b-	{L'ois-
8b-	-eau
4b-	chante
4b-	et
=38	=38
4.cc	pleure,
8g	he/-
[4a	-las!..
8a]}	|}
8r	.
=39	=39
{4dd	{Pour-
2dd	-quoi
8dd	re
8dd	di-
=40	=40
4.ee	-vin
8bn	mys-
4cc	-te\
8cc}	-re}
8r	.
=41	=41
{4ff	{Si
4ff	tu
4.ff	n'ai-
8ee	-mes
=42	=42
[2dd	pas!..
4dd]}	|}
4r	.
=43	=43
{4.a	Si
8cc	tu
4.cc	n'ai-
8e	-mes
=44	=44
[2f	pas!..
4f]}	|}
4r	.
=45	=45
1r	.
=46	=46
1r	.
=47	=47
1r	.
=48	=48
2r	.
{4.a	{Com-
8a	-me
=49	=49
4a	ces
4a	ra-
4.a	-yons
8a	de
=50	=50
4cc	flam-
4b-}	-me,}
4r	.
{8b-	{Et
8b-	ces
=51	=51
2b-	flots,
4b-	et
8b-	-ces
8b-	-ze/-
=52	=52
4dd	-plurs,
4cc}	|}
4r	.
{4cc	{Mon
=53	=53
4.cc	a^-
8cc	-me
[4dd	cher-
8dd]	|
8dd	-che
=54	=54
4.dd	dans
8dd	ton
8ee-	a^-
8ee-}	-me}
8r	.
{8cc	{L'e/-
=55	=55
4.b-	-cho
8b-	de
4.b-	ses
8a	sou-
=56	=56
4a	-pirs!
4g}	|}
2r	.
=57	=57
4r	.
{8g	{Com-
8g	-me
4g	ces
4g	oi-
=59	=59
4.a	-seaux
8e	fi-
4f	-de\
8f}	-les,}
8r	.
=60	=60
4r	.
{8b-	{Dans
8b-	le
4b-	nid
4b-	de
=61	=61
4.cc	leurs
8g	a-
[4a	-mours
8a]}	|}
8r	.
=62	=62
{4dd	{Blot-
2dd	-tis
8dd	et
8dd	pli-
=63	=63
4.ee	-ant
8bn	leurs
4cc	ai-
8cc}	-les.}
8r	.
=64	=64
{4.ff	{Ai-
8ff	-mons
4.ff	nous
8ee	tou-
=65	=65
[2dd	-jours!..
4dd]}	|}
4r	.
=66	=66
{4.a	{Ai-
8cc	-mons-
4.cc	-nous
8e	tou-
=67	=67
[2f	-jours!..
4f]}	|}
4r	.
==	==
*-	*-
